flaticon/interaction/placeholder-6.svg

<svg xmlns="http://www.w3.org/2000/svg" width="32" height="32" viewBox="0 0 24 24">
    <path d="M22.441406 16.257812C22.265625 14.464844 20.925781 13.164062 19.25 13.164062 18.199219 13.164062 17.316406 13.800781 16.757812 14.574219 16.199219 13.800781 15.316406 13.164062 14.265625 13.164062 12.589844 13.164062 11.25 14.464844 11.074219 16.257812 11.054688 16.375 11.011719 16.792969 11.171875 17.445312 11.410156 18.410156 11.960938 19.285156 12.765625 19.976562L16.757812 23.394531 20.75 19.976562C21.554688 19.285156 22.105469 18.410156 22.34375 17.445312 22.503906 16.792969 22.460938 16.375 22.441406 16.257812zM21.492188 17.234375C21.296875 18.023438 20.84375 18.742188 20.179688 19.3125L16.757812 22.238281 13.339844 19.3125C12.675781 18.738281 12.21875 18.019531 12.023438 17.234375 11.890625 16.703125 11.941406 16.402344 11.941406 16.402344L11.945312 16.355469C12.054688 15.207031 12.882812 14.039062 14.265625 14.039062 15.222656 14.039062 16.007812 14.835938 16.355469 15.621094L16.757812 16.527344 17.160156 15.621094C17.507812 14.835938 18.292969 14.039062 19.253906 14.039062 20.632812 14.039062 21.460938 15.207031 21.574219 16.394531 21.574219 16.398438 21.625 16.699219 21.492188 17.234375zM6.957031 8.335938C6.957031 10.03125 8.335938 11.40625 10.03125 11.40625 11.722656 11.40625 13.101562 10.03125 13.101562 8.335938 13.101562 6.644531 11.722656 5.265625 10.03125 5.265625 8.335938 5.265625 6.957031 6.644531 6.957031 8.335938zM12.222656 8.335938C12.222656 9.546875 11.238281 10.53125 10.03125 10.53125 8.820312 10.53125 7.835938 9.546875 7.835938 8.335938 7.835938 7.128906 8.820312 6.144531 10.03125 6.144531 11.238281 6.144531 12.222656 7.128906 12.222656 8.335938zM12.222656 8.335938"/>
    <path d="M 11.28125 20.792969 L 9.96875 22.511719 L 3.921875 13.777344 C 1.640625 10.734375 1.96875 5.738281 4.625 3.085938 C 6.046875 1.660156 7.941406 0.878906 9.953125 0.878906 C 11.964844 0.878906 13.859375 1.660156 15.28125 3.085938 C 17.226562 5.027344 17.984375 8.328125 17.167969 11.292969 C 17.101562 11.523438 17.238281 11.765625 17.472656 11.832031 C 17.707031 11.894531 17.949219 11.757812 18.011719 11.523438 C 18.910156 8.265625 18.0625 4.625 15.902344 2.464844 C 14.3125 0.875 12.199219 0 9.953125 0 C 7.707031 0 5.59375 0.875 4.003906 2.464844 C 1.0625 5.40625 0.695312 10.9375 3.210938 14.289062 L 9.933594 24 L 11.976562 21.328125 C 12.125 21.136719 12.089844 20.859375 11.894531 20.710938 C 11.703125 20.566406 11.429688 20.601562 11.28125 20.792969 Z M 11.28125 20.792969"/>
</svg>

<svg xmlns="http://www.w3.org/2000/svg" width="32" height="32" viewBox="0 0 24 24">
    <path d="M22.441 16.258c-.175-1.793-1.515-3.094-3.191-3.094-1.05 0-1.934.637-2.492 1.41-.559-.773-1.442-1.41-2.492-1.41-1.676 0-3.016 1.3-3.192 3.094-.02.117-.062.535.098 1.187.238.965.789 1.84 1.594 2.532l3.992 3.418 3.992-3.418c.805-.692 1.355-1.567 1.594-2.532.16-.652.117-1.07.097-1.187zm-.949.976c-.195.79-.648 1.508-1.312 2.078l-3.422 2.926-3.418-2.925c-.664-.575-1.121-1.293-1.317-2.079-.132-.53-.082-.832-.082-.832l.004-.047c.11-1.148.938-2.316 2.32-2.316.958 0 1.743.797 2.09 1.582l.403.906.402-.906c.348-.785 1.133-1.582 2.094-1.582 1.379 0 2.207 1.168 2.32 2.356 0 .003.051.304-.082.84zm0 0M6.957 8.336a3.073 3.073 0 0 0 6.145 0 3.076 3.076 0 0 0-3.07-3.07 3.077 3.077 0 0 0-3.075 3.07zm5.266 0c0 1.21-.985 2.195-2.192 2.195a2.197 2.197 0 0 1-2.195-2.195c0-1.207.984-2.191 2.195-2.191 1.207 0 2.192.984 2.192 2.19zm0 0"/>
    <path d="M11.281 20.793L9.97 22.512l-6.047-8.735c-2.281-3.043-1.953-8.039.703-10.691A7.475 7.475 0 0 1 9.953.879c2.012 0 3.906.781 5.328 2.207 1.946 1.941 2.703 5.242 1.887 8.207a.437.437 0 1 0 .844.23c.898-3.257.05-6.898-2.11-9.058A8.36 8.36 0 0 0 9.953 0a8.36 8.36 0 0 0-5.95 2.465c-2.94 2.941-3.308 8.473-.792 11.824L9.934 24l2.043-2.672a.438.438 0 1 0-.696-.535zm0 0"/>
</svg>
